extensions/Translate/resources/images/expand-rtl.svg

<?xml version="1.0" encoding="UTF-8" standalone="no"?>
<!-- Created with Inkscape (http://www.inkscape.org/) -->

<svg
   xmlns:dc="http://purl.org/dc/elements/1.1/"
   xmlns:cc="http://creativecommons.org/ns#"
   xmlns:rdf="http://www.w3.org/1999/02/22-rdf-syntax-ns#"
   xmlns:svg="http://www.w3.org/2000/svg"
   xmlns="http://www.w3.org/2000/svg"
   version="1.1"
   width="16"
   height="12"
   id="svg17805">
  <defs
     id="defs17807" />
  <metadata
     id="metadata17810">
    <rdf:RDF>
      <cc:Work
         rdf:about="">
        <dc:format>image/svg+xml</dc:format>
        <dc:type
           rdf:resource="http://purl.org/dc/dcmitype/StillImage" />
        <dc:title></dc:title>
      </cc:Work>
    </rdf:RDF>
  </metadata>
  <g
     transform="translate(-159.64355,-103.30805)"
     id="layer1">
    <rect
       width="4.2944264"
       height="9.2567539"
       x="-165.12401"
       y="104.72025"
       transform="scale(-1,1)"
       id="rect8020-7-3-7"
       style="color:#000000;fill:#b9b9b9;fill-opacity:1;fill-rule:nonzero;stroke:none;stroke-width:1.5;marker:none;visibility:visible;display:inline;overflow:visible;enable-background:accumulate" />
    <rect
       width="14.63288"
       height="10.276761"
       x="-174.96001"
       y="104.16966"
       transform="scale(-1,1)"
       id="rect6062-5-54-4"
       style="color:#000000;fill:none;stroke:#2e3436;stroke-width:1.36711919;marker:none;visibility:visible;display:inline;overflow:visible;enable-background:accumulate" />
    <path
       d="M 7.5625,2.21875 4.25,5.53125 3.84375,5.96875 4.25,6.375 7.5,9.625 8.34375,8.78125 6.09375,6.5 l 5.75,0 0,-1.1875 -5.6875,0 2.25,-2.25 L 7.5625,2.21875 z"
       transform="translate(159.64355,103.30805)"
       id="path8014-1-9-7"
       style="font-size:medium;font-style:normal;font-variant:normal;font-weight:normal;font-stretch:normal;text-indent:0;text-align:start;text-decoration:none;line-height:normal;letter-spacing:normal;word-spacing:normal;text-transform:none;direction:ltr;block-progression:tb;writing-mode:lr-tb;text-anchor:start;baseline-shift:baseline;color:#000000;fill:#2e3436;fill-opacity:1;stroke:none;stroke-width:1.18803263;marker:none;visibility:visible;display:inline;overflow:visible;enable-background:accumulate;font-family:Sans;-inkscape-font-specification:Sans" />
  </g>
</svg>

<?xml version="1.0" encoding="UTF-8"?>
<svg xmlns="http://www.w3.org/2000/svg" width="16" height="12" viewBox="0 0 16 12">
	<path fill="#a2a9b1" d="M5.48 1.412H1.186v9.257H5.48z" overflow="visible"/>
	<path fill="none" stroke="#222" stroke-width="1.367" d="M15.316.862H.683V11.14h14.633z" overflow="visible"/>
	<path fill="#222" d="M7.563 2.22L4.25 5.53l-.406.44.406.405 3.25 3.25.844-.844-2.25-2.28h5.75V5.312H6.156l2.25-2.25-.844-.843z" overflow="visible"/>
</svg>
